assets/img/graphic-locks.svg

<?xml version="1.0" encoding="UTF-8" standalone="no"?>
<svg width="46px" height="54px" viewBox="0 0 46 54" version="1.1" xmlns="http://www.w3.org/2000/svg" xmlns:xlink="http://www.w3.org/1999/xlink">
    <!-- Generator: Sketch 39.1 (31720) - http://www.bohemiancoding.com/sketch -->
    <title>Play 4A copy 2</title>
    <desc>Created with Sketch.</desc>
    <defs></defs>
    <g id="Page-1" stroke="none" stroke-width="1" fill="none" fill-rule="evenodd">
        <g id="Playbook-Splash" transform="translate(-615.000000, -759.000000)">
            <g id="Play-4A-copy-2" transform="translate(615.000000, 759.000000)">
                <g id="Play-4A-copy">
                    <g id="Layer_1">
                        <ellipse id="Oval" stroke="#02BFE7" stroke-width="4" transform="translate(22.936129, 26.462275) rotate(-0.060000) translate(-22.936129, -26.462275) " cx="22.9361292" cy="26.4622752" rx="18.8974419" ry="19.0782"></ellipse>
                        <path d="M19.7318605,34.6356 L3.24139535,5.805 C2.57711932,4.64790559 2.57600571,3.22063217 3.23847529,2.06248268 C3.90094488,0.904333194 5.12598119,0.191907699 6.45069767,0.1944 L39.4262791,0.1944 C40.7509956,0.191907699 41.9760319,0.904333194 42.6385015,2.06248268 C43.300971,3.22063217 43.2998574,4.64790559 42.6355814,5.805 L26.1451163,34.6356 C25.4842207,35.7928797 24.2616742,36.5059695 22.9384884,36.5059695 C21.6153025,36.5059695 20.392756,35.7928797 19.7318605,34.6356 L19.7318605,34.6356 Z" id="Shape" fill="#E31C3D"></path>
                        <path d="M26.1451163,19.4076 L42.6302326,48.2382 C43.2945086,49.3952944 43.2956222,50.8225678 42.6331526,51.9807173 C41.970683,53.1388668 40.7456467,53.8512923 39.4209302,53.8488 L6.45069767,53.8488 C5.12598119,53.8512923 3.90094488,53.1388668 3.23847529,51.9807173 C2.57600571,50.8225678 2.57711932,49.3952944 3.24139535,48.2382 L19.7318605,19.4076 C20.392756,18.2503203 21.6153025,17.5372305 22.9384884,17.5372305 C24.2616742,17.5372305 25.4842207,18.2503203 26.1451163,19.4076 L26.1451163,19.4076 Z" id="Shape" fill="#0071BC"></path>
                        <polygon id="Shape" fill="#112E51" points="25.1395349 10.5786 20.7374419 10.5786 19.8548837 19.5966 26.0167442 19.5966"></polygon>
                        <ellipse id="Oval" fill="#112E51" cx="22.935814" cy="7.9434" rx="3.70674419" ry="3.7422"></ellipse>
                        <polygon id="Shape" fill="#112E51" points="20.7374419 43.4646 25.1395349 43.4646 26.0167442 34.4466 19.8548837 34.4466"></polygon>
                        <ellipse id="Oval" fill="#112E51" cx="22.935814" cy="46.0998" rx="3.70674419" ry="3.7422"></ellipse>
                        <polygon id="Shape" fill="#112E51" points="6.64860465 24.7968 6.64860465 29.2464 15.5811628 30.132 15.5811628 23.9112"></polygon>
                        <ellipse id="Oval" fill="#112E51" cx="4.03837209" cy="27.0216" rx="3.70674419" ry="3.7422"></ellipse>
                        <polygon id="Shape" fill="#112E51" points="39.2230233 29.2464 39.2230233 24.7968 30.295814 23.9112 30.295814 30.132"></polygon>
                        <ellipse id="Oval" fill="#112E51" cx="41.8332558" cy="27.0216" rx="3.70674419" ry="3.7422"></ellipse>
                    </g>
                    <g id="Layer_6" transform="translate(10.162791, 14.040000)">
                        <ellipse id="Oval" fill="#02BFE7" transform="translate(12.773338, 12.422275) rotate(-0.060000) translate(-12.773338, -12.422275) " cx="12.7733385" cy="12.4222752" rx="12.2434884" ry="12.3606"></ellipse>
                        <polygon id="Shape" fill="#FFFFFF" points="14.5702326 11.8854 10.975814 11.8854 9.82581395 19.0674 15.7255814 19.0674"></polygon>
                        <ellipse id="Oval" fill="#FFFFFF" cx="12.7730233" cy="9.7362" rx="3.02744186" ry="3.0564"></ellipse>
                    </g>
                </g>
            </g>
        </g>
    </g>
</svg>

<svg width="46" height="54" xmlns="http://www.w3.org/2000/svg"><g fill="none" fill-rule="evenodd"><ellipse stroke="#02BFE7" stroke-width="4" transform="rotate(-.06 22.936 26.462)" cx="22.936" cy="26.462" rx="18.897" ry="19.078"/><path d="M19.732 34.636L3.242 5.805a3.768 3.768 0 01-.004-3.743A3.695 3.695 0 016.451.194h32.975a3.695 3.695 0 013.213 1.868 3.768 3.768 0 01-.003 3.743l-16.49 28.83a3.695 3.695 0 01-3.208 1.871 3.695 3.695 0 01-3.206-1.87z" fill="#E31C3D"/><path d="M26.145 19.408l16.485 28.83a3.768 3.768 0 01.003 3.743 3.695 3.695 0 01-3.212 1.868H6.45a3.695 3.695 0 01-3.213-1.868 3.768 3.768 0 01.003-3.743l16.49-28.83a3.695 3.695 0 013.207-1.87c1.324 0 2.546.712 3.207 1.87z" fill="#0071BC"/><path fill="#112E51" d="M25.14 10.579h-4.403l-.882 9.018h6.162z"/><ellipse fill="#112E51" cx="22.936" cy="7.943" rx="3.707" ry="3.742"/><path fill="#112E51" d="M20.737 43.465h4.403l.877-9.018h-6.162z"/><ellipse fill="#112E51" cx="22.936" cy="46.1" rx="3.707" ry="3.742"/><path fill="#112E51" d="M6.649 24.797v4.45l8.932.885v-6.22z"/><ellipse fill="#112E51" cx="4.038" cy="27.022" rx="3.707" ry="3.742"/><path fill="#112E51" d="M39.223 29.246v-4.45l-8.927-.885v6.221z"/><ellipse fill="#112E51" cx="41.833" cy="27.022" rx="3.707" ry="3.742"/><g transform="translate(10.163 14.04)"><ellipse fill="#02BFE7" transform="rotate(-.06 12.773 12.422)" cx="12.773" cy="12.422" rx="12.243" ry="12.361"/><path fill="#FFF" d="M14.57 11.885h-3.594l-1.15 7.182h5.9z"/><ellipse fill="#FFF" cx="12.773" cy="9.736" rx="3.027" ry="3.056"/></g></g></svg>
